packages/icons/svg/Fill/options-2.svg

<svg width="24" height="24" viewBox="0 0 24 24" fill="none" xmlns="http://www.w3.org/2000/svg">
<g id="Icon/Fill/options-2">
<path id="Mask" fill-rule="evenodd" clip-rule="evenodd" d="M3 7.00009H4.185C4.599 8.16109 5.698 9.00009 7 9.00009C8.302 9.00009 9.401 8.16109 9.815 7.00009H21C21.553 7.00009 22 6.55309 22 6.00009C22 5.44709 21.553 5.00009 21 5.00009H9.815C9.401 3.83909 8.302 3.00009 7 3.00009C5.698 3.00009 4.599 3.83909 4.185 5.00009H3C2.447 5.00009 2 5.44709 2 6.00009C2 6.55309 2.447 7.00009 3 7.00009ZM19 9.00009C17.698 9.00009 16.599 9.83909 16.185 11.0001H3C2.447 11.0001 2 11.4471 2 12.0001C2 12.5531 2.447 13.0001 3 13.0001H16.185C16.599 14.1611 17.698 15.0001 19 15.0001C20.654 15.0001 22 13.6541 22 12.0001C22 10.3461 20.654 9.00009 19 9.00009ZM13.815 17.0001H21C21.553 17.0001 22 17.4471 22 18.0001C22 18.5531 21.553 19.0001 21 19.0001H13.815C13.401 20.1611 12.302 21.0001 11 21.0001C9.698 21.0001 8.599 20.1611 8.185 19.0001H3C2.447 19.0001 2 18.5531 2 18.0001C2 17.4471 2.447 17.0001 3 17.0001H8.185C8.599 15.8391 9.698 15.0001 11 15.0001C12.302 15.0001 13.401 15.8391 13.815 17.0001Z" fill="#000000"/>
</g>
</svg>

<svg fill="none" height="24" viewBox="0 0 24 24" width="24" xmlns="http://www.w3.org/2000/svg"><path clip-rule="evenodd" d="m3.00003 7h1.185c.414 1.161 1.513 2 2.815 2s2.401-.839 2.815-2h11.18497c.553 0 1-.447 1-1s-.447-1-1-1h-11.18497c-.414-1.161-1.513-2-2.815-2s-2.401.839-2.815 2h-1.185c-.553 0-1 .447-1 1s.447 1 1 1zm15.99997 2c-1.302 0-2.401.839-2.815 2h-13.18497c-.553 0-1 .447-1 1s.447 1 1 1h13.18497c.414 1.161 1.513 2 2.815 2 1.654 0 3-1.346 3-3s-1.346-3-3-3zm-5.185 8h7.185c.553 0 1 .447 1 1s-.447 1-1 1h-7.185c-.414 1.161-1.513 2-2.815 2-1.30197 0-2.40097-.839-2.81497-2h-5.185c-.553 0-1-.447-1-1s.447-1 1-1h5.185c.414-1.161 1.513-2 2.81497-2 1.302 0 2.401.839 2.815 2z" fill="#6b7280" fill-rule="evenodd"/></svg>
